X:1
T:Title
%%score { ( 1 3 ) | 2 }
L:1/8
Q:1/4=100
M:6/8
K:G
V:1 treble nm="Grand Piano"
V:3 treble 
V:2 bass 
V:1
 B2 B B2 A | A2 [B,G] [B,G]2 G | B2 B d2 d | [Ec]3- [Ec]2 [Ec] | [Fc]2 [FB] [FA]2 [Fc] | %5
w: G.~F.~Root * * *|||||
 [GB]2 [FA] [EG]2 [EA] | [^CB]2 [CA] [CG][CF][CE] | D6 | [B,D][B,G][CA] .[DB]3 | %9
w: ||||
 [DG][GB][Ac] .[Bd]3 | [Bd]>[Ac][GB] [Ac][Ac][Ac] | [Ac]>[GB][FA] .[GB]3 | [B,D][B,G][CA] .[DB]3 | %13
w: ||||
 [DG][GB][Ac] .[Bd]3 | [Gd]>[GB]G [Ge][Ec][A,EA] | [B,DG][DB][CDA] .[B,DG]3 |] %16
w: |||
V:2
 [G,D]2 [G,D] [G,D]2 [D,F,C] | [D,F,C]2 [G,,G,] [G,,G,]2 [G,B,] | [G,D]2 [G,D] [G,B,=F]2 [G,B,F] | %3
 [C,C]3- [C,C]2 [C,C] | [D,A,]2 [D,D] [D,D]2 [D,D] | [G,D]2 [D,C] [E,B,]2 [E,B,] | %6
 [A,,A,]2 [A,,A,] [A,,A,][A,,A,][A,,G,] | [D,F,]3 [D,A,]3 | [G,,G,][G,,G,][G,,G,] .[G,,G,]3 | %9
 [G,B,][A,D][G,D] .[G,D]3 | [D,D]>[D,D][D,D] [D,D][D,D][D,D] | [D,D]>[D,D][D,D] .[G,D]3 | %12
 [G,,G,][G,,G,][G,,G,] .[G,,G,]3 | [G,B,][G,D][G,D] .[G,D]3 | %14
 [B,,G,]>[B,,G,][B,,G,] [C,G,][C,G,]C, | D,D,D, .G,,3 |] %16
V:3
 x6 | x6 | x6 | x6 | x6 | x6 | x6 | z3 C3 | x6 | x6 | x6 | x6 | x6 | x6 | x6 | x6 |] %16

